static/img/svg/Strategy.svg

<?xml version="1.0" ?><!DOCTYPE svg  PUBLIC '-//W3C//DTD SVG 1.1//EN'  'http://www.w3.org/Graphics/SVG/1.1/DTD/svg11.dtd'><svg enable-background="new 0 0 512 512" height="512px" id="Strategy" version="1.1" viewBox="0 0 512 512" width="512px" xml:space="preserve" xmlns="http://www.w3.org/2000/svg" xmlns:xlink="http://www.w3.org/1999/xlink"><path d="M429.418,475.344c-18.338-18.34-153.176-153.178-158.415-158.417c-0.001-0.067-0.003-0.138-0.003-0.205  c0-14.726,0.531-256.101,0-289.005c-0.009-0.523,0-1.047,0-1.571c0-7.846-6.899-15.363-15-15c-8.127,0.364-15,6.591-15,15  c0,33.446,0,280.68,0,290.778c-16.874,16.875-151.714,151.715-158.419,158.42c-5.729,5.728-5.729,15.484,0,21.213  c5.748,5.748,15.467,5.746,21.213,0C126.826,473.524,228.297,372.054,256,344.351c14.803,14.804,29.605,29.606,44.409,44.409  c29.228,29.227,101.091,101.092,107.796,107.797c5.729,5.729,15.485,5.729,21.213,0C435.167,490.809,435.165,481.09,429.418,475.344  z" fill="#3F5EAB"/><linearGradient gradientUnits="userSpaceOnUse" id="SVGID_1_" x1="82.1226" x2="429.8789" y1="435.3232" y2="87.5669"><stop offset="0" style="stop-color:#B3B3B3"/><stop offset="0.0161" style="stop-color:#B7B7B7"/><stop offset="0.152" style="stop-color:#D1D1D1"/><stop offset="0.3016" style="stop-color:#E5E5E5"/><stop offset="0.4698" style="stop-color:#F4F4F4"/><stop offset="0.6721" style="stop-color:#FCFCFC"/><stop offset="1" style="stop-color:#FFFFFF"/></linearGradient><rect fill="url(#SVGID_1_)" height="288.327" width="407.186" x="52.407" y="117.281"/><linearGradient gradientUnits="userSpaceOnUse" id="SVGID_2_" x1="136.6484" x2="375.3524" y1="214.1211" y2="-24.5829"><stop offset="0" style="stop-color:#FF7BAC"/><stop offset="1" style="stop-color:#00FFFF"/></linearGradient><path d="M466.703,117.281H45.297c-7.318,0-13.25-5.932-13.25-13.25V85.506c0-7.318,5.932-13.25,13.25-13.25  h421.406c7.317,0,13.25,5.932,13.25,13.25v18.525C479.953,111.349,474.021,117.281,466.703,117.281z" fill="url(#SVGID_2_)"/><path d="M336.965,223.698c-23.406-17.487-53.379-21.667-81.641-22.747l20.831-20.56l-25.91-0.162l-30.706,30.324  l30.323,30.706l25.911,0.163l-20.199-20.442c24.822,1.023,50.598,4.676,69.42,18.74c24.283,18.143,36.087,52.929,36.087,106.348h20  C381.081,285.904,366.65,245.877,336.965,223.698z" fill="#3F5EAB"/><polygon fill="#3F5EAB" points="243.279,303.338 229.137,289.195 214.052,304.281 198.966,289.195 184.823,303.338 199.908,318.424   184.823,333.509 198.966,347.651 214.052,332.566 229.137,347.651 243.279,333.509 228.193,318.424 "/><polygon fill="#3F5EAB" points="416.978,165.175 402.835,151.033 387.75,166.119 372.665,151.033 358.522,165.175 373.608,180.261   358.522,195.347 372.665,209.488 387.75,194.403 402.835,209.488 416.978,195.347 401.892,180.261 "/><path d="M157.188,245.355c-19.19,0-34.804-15.613-34.804-34.803c0-19.191,15.613-34.804,34.804-34.804  s34.804,15.613,34.804,34.804C191.991,229.742,176.378,245.355,157.188,245.355z M157.188,195.748  c-8.163,0-14.804,6.641-14.804,14.804s6.641,14.803,14.804,14.803s14.804-6.641,14.804-14.803S165.351,195.748,157.188,195.748z" fill="#3F5EAB"/></svg>

<svg width="512" height="512" viewBox="0 0 512 512" fill="none" xmlns="http://www.w3.org/2000/svg">
<path d="M429.418 475.344C411.08 457.004 276.242 322.166 271.003 316.927C271.002 316.86 271 316.789 271 316.722C271 301.996 271.531 60.621 271 27.717C270.991 27.194 271 26.67 271 26.146C271 18.3 264.101 10.783 256 11.146C247.873 11.51 241 17.737 241 26.146C241 59.592 241 306.826 241 316.924C224.126 333.799 89.286 468.639 82.581 475.344C76.852 481.072 76.852 490.828 82.581 496.557C88.329 502.305 98.048 502.303 103.794 496.557C126.826 473.524 228.297 372.054 256 344.351C270.803 359.155 285.605 373.957 300.409 388.76C329.637 417.987 401.5 489.852 408.205 496.557C413.934 502.286 423.69 502.286 429.418 496.557C435.167 490.809 435.165 481.09 429.418 475.344Z" fill="#8D56A0"/>
<path d="M459.593 117.281H52.407V405.608H459.593V117.281Z" fill="url(#paint0_linear)"/>
<path d="M466.703 117.281H45.297C37.979 117.281 32.047 111.349 32.047 104.031V85.506C32.047 78.188 37.979 72.256 45.297 72.256H466.703C474.02 72.256 479.953 78.188 479.953 85.506V104.031C479.953 111.349 474.021 117.281 466.703 117.281Z" fill="url(#paint1_linear)"/>
<path d="M336.965 223.698C313.559 206.211 283.586 202.031 255.324 200.951L276.155 180.391L250.245 180.229L219.539 210.553L249.862 241.259L275.773 241.422L255.574 220.98C280.396 222.003 306.172 225.656 324.994 239.72C349.277 257.863 361.081 292.649 361.081 346.068H381.081C381.081 285.904 366.65 245.877 336.965 223.698Z" fill="#8D56A0"/>
<path d="M243.279 303.338L229.137 289.195L214.052 304.281L198.966 289.195L184.823 303.338L199.908 318.424L184.823 333.509L198.966 347.651L214.052 332.566L229.137 347.651L243.279 333.509L228.193 318.424L243.279 303.338Z" fill="#8D56A0"/>
<path d="M416.978 165.175L402.835 151.033L387.75 166.119L372.665 151.033L358.522 165.175L373.608 180.261L358.522 195.347L372.665 209.488L387.75 194.403L402.835 209.488L416.978 195.347L401.892 180.261L416.978 165.175Z" fill="#8D56A0"/>
<path d="M157.188 245.355C137.998 245.355 122.384 229.742 122.384 210.552C122.384 191.361 137.997 175.748 157.188 175.748C176.379 175.748 191.992 191.361 191.992 210.552C191.991 229.742 176.378 245.355 157.188 245.355ZM157.188 195.748C149.025 195.748 142.384 202.389 142.384 210.552C142.384 218.715 149.025 225.355 157.188 225.355C165.351 225.355 171.992 218.714 171.992 210.552C171.992 202.39 165.351 195.748 157.188 195.748Z" fill="#8D56A0"/>
<defs>
<linearGradient id="paint0_linear" x1="82.1226" y1="435.323" x2="429.879" y2="87.5669" gradientUnits="userSpaceOnUse">
<stop stop-color="#B3B3B3"/>
<stop offset="0.0161" stop-color="#B7B7B7"/>
<stop offset="0.152" stop-color="#D1D1D1"/>
<stop offset="0.3016" stop-color="#E5E5E5"/>
<stop offset="0.4698" stop-color="#F4F4F4"/>
<stop offset="0.6721" stop-color="#FCFCFC"/>
<stop offset="1" stop-color="white"/>
</linearGradient>
<linearGradient id="paint1_linear" x1="136.648" y1="214.121" x2="375.352" y2="-24.5829" gradientUnits="userSpaceOnUse">
<stop stop-color="#FF7BAC"/>
<stop offset="1" stop-color="#9E09A2"/>
</linearGradient>
</defs>
</svg>
